X:112
T:Marshall's Compliments to Neil Gow
S:NLS MS 21752
M:4/4
L:1/8
Q:1/4=120
K:C
G|c>dc>G  c<e c2|e>dc>G             ADD2|c>dc>G .A.cfa |a/g/f/e/ d/e/f/g/ ecc:|
g|c'>cg>c c'>cg2|c'/b/a/g/ a/g/f/e/ dcd2|c'>cg>c c'>cg2|a/g/f/e/ d/e/f/g/ ecc:|
g|c'>cg>c c'>cg2|c'/b/a/g/ a/g/f/e/ dcd2|c>dc>G  Acf>a |a/g/f/e/ d/e/f/g/ ecc:|

